X:1623
L:1/8
M:6/8
K:C
 c | cBc G2 e | ede c2 g | c'2 g gfe | edd d2 c | cBc G2 e | ede c2 c | def GAB | ccc c2 z :: g | 
 agg c'ba | agg e2 g | d2 g e2 g | dgg g2 g | agg c'ba | agg e2 c | def GAB | ccc c2 :|

